website/static/img/logo-light.svg

<svg viewBox="0 0 41 26" fill="none" xmlns="http://www.w3.org/2000/svg">
<path d="M23.4981 15.0796L15.3062 9.66292" stroke="#131722" stroke-width="1.5"/>
<path d="M13.5495 10.6765L5.13574 17.5368" stroke="#131722" stroke-width="1.5"/>
<circle cx="15.3062" cy="9.87143" r="2.5" fill="#131722"/>
<circle cx="24.4253" cy="15.4999" r="2.5" fill="#131722"/>
<path fill-rule="evenodd" clip-rule="evenodd" d="M39.0634 1.18082C37.3824 5.02684 33.5508 10.4602 25.7158 14.8452L26.4484 16.1541C35.3439 11.1756 39.3594 4.83494 40.8931 0.649414L39.0634 1.18082Z" fill="#131722"/>
<path d="M20.0245 24.3591C30.557 24.3591 38.883 13.9299 38.0182 4.55039C33.3567 7.24046 29.6467 7.39479 25.4478 4.80047C25.4478 5.98148 25.4478 7.28989 25.8275 8.62738C24.5782 7.99523 21.0402 6.60317 19.5147 2.88528C7.43611 1.27871 1.55713 11.6345 1.55713 11.6345C1.55713 11.6345 2.35881 18.0066 11.1225 22.5621C11.1225 22.5621 14.7183 21.9522 18.6672 20.0884C18.6672 22.2358 16.9517 24.2321 16.9517 24.2321C18.1176 24.3591 18.9998 24.3591 20.0245 24.3591Z" stroke="#131722" stroke-width="1.5"/>
</svg>

<svg xmlns="http://www.w3.org/2000/svg" viewBox="0 0 41 26" fill="none"><path d="M23.5 15.08l-8.2-5.42M13.55 10.68l-8.41 6.86" stroke="#131722" stroke-width="1.5"/><circle cx="15.31" cy="9.87" r="2.5" fill="#131722"/><circle cx="24.43" cy="15.5" r="2.5" fill="#131722"/><path d="M39.06 1.18c-1.68 3.85-5.5 9.28-13.34 13.67l.73 1.3c8.9-4.97 12.9-11.32 14.44-15.5l-1.83.53z" fill="#131722"/><path d="M20.02 24.36c10.54 0 18.86-10.43 18-19.81-4.66 2.69-8.37 2.84-12.57.25 0 1.18 0 2.49.38 3.83C24.58 8 21.04 6.6 19.5 2.89 7.44 1.28 1.56 11.63 1.56 11.63s.8 6.38 9.56 10.93c0 0 3.6-.6 7.55-2.47 0 2.15-1.72 4.14-1.72 4.14 1.17.13 2.05.13 3.07.13z" stroke="#131722" stroke-width="1.5"/></svg>
